X: 115
T:The Grindstone
% Nottingham Music Database
S:13.2.91, via Phil Rowe
M:6/8
K:F
"C7"c2B |"F""f"A2A " ""a"F2F|"Bb""bb"DFD " ""d"B,2=B,|\
"C7""c"C2" ""bb"C " ""a"CD" ""g"E|"F""f"F2A "C7"c2B|
"F"A2A F2F|"Bb"DFD B,2=B,|"C7"C2C CDE| [1"F"F3 :|
 [2"F"F3 "G7"F3|:"C"E2E CDE|"Dm"F2F "G7"DEF|"C"G2E "Am"C2^C|"Dm"DEF "G7"GA=B|
"C"c2c edc|"F"f2c A2F|"G7"G2G FED|"C"C6::
"C7"c2c GAB|"F"A2F "Bb"D2^D|"C7"E^DE C=DE|"F"F2A c3|
"C"c2c cde|"F"f2c A2F|"Gm"GAB "C7"cde|"F"f6:|<end>
<start>
